fs/mail_16_filled.svg

<svg viewBox="0 0 16 16" fill="none" xmlns="http://www.w3.org/2000/svg" height="1em" width="1em">
  <path d="M4 3C2.89543 3 2 3.89543 2 5V5.2013L8.0001 8.43212L14 5.20141V5C14 3.89543 13.1046 3 12 3H4ZM14 6.33716L8.23715 9.44024C8.08916 9.51992 7.91104 9.51992 7.76305 9.44024L2 6.33706V11C2 12.1046 2.89543 13 4 13H12C13.1046 13 14 12.1046 14 11V6.33716Z" fill="#212121"/>
</svg>

<svg viewBox="0 0 16 16" fill="none" xmlns="http://www.w3.org/2000/svg" height="1em" width="1em">
  <path d="M4 3a2 2 0 0 0-2 2v.201l6 3.231 6-3.23V5a2 2 0 0 0-2-2H4Zm10 3.337L8.237 9.44a.5.5 0 0 1-.474 0L2 6.337V11a2 2 0 0 0 2 2h8a2 2 0 0 0 2-2V6.337Z" fill="#212121"/>
</svg>
